X:132
M:3/4
L:1/8
K:D
| F2A2A2 | G2B2B2 | A2d2e2 | f4a2 | a2g2f2 | e2d2e2 | f2d2B2 | A6 | 
f2d2f2 | e2c2e2 | d2c2B2 | A2F2A2 | B4B2 | c4e2 | e2d2B2 | A2F2A2 | 
f2d2f2 | e2c2e2 | d2c2B2 | A2F2A2 | B4B2 | c4B2 | A2f2e2 | d6 || 

